src/assets/python_logo.svg

<svg width="24" height="24" viewBox="0 0 24 24" fill="none" xmlns="http://www.w3.org/2000/svg">
<path d="M14.2428 0.184005L15.1383 0.384005L15.8647 0.644005L16.4518 0.944005L16.8995 1.264L17.2378 1.604L17.4866 1.944L17.6458 2.274L17.7453 2.574L17.7851 2.834L17.805 3.034L17.7951 3.16401V8.504L17.7453 9.13401L17.616 9.68401L17.407 10.144L17.1483 10.524L16.8498 10.834L16.5214 11.084L16.1732 11.274L15.8249 11.414L15.4965 11.514L15.198 11.584L14.9393 11.624L14.7304 11.644H8.79008L8.10351 11.694L7.51645 11.834L7.01894 12.054L6.61098 12.324L6.28262 12.644L6.01396 12.994L5.81496 13.354L5.6657 13.724L5.5662 14.074L5.49655 14.394L5.45675 14.664L5.43685 14.874V17.934H3.21794L3.00899 17.904L2.73038 17.834L2.41197 17.714L2.06371 17.534L1.7055 17.274L1.34729 16.914L0.999036 16.454L0.680628 15.864L0.402021 15.134L0.193066 14.254L0.0537625 13.204L0.00401121 11.974L0.0637127 10.754L0.222917 9.714L0.461723 8.84401L0.780131 8.13401L1.13834 7.564L1.53635 7.124L1.95426 6.794L2.37217 6.55401L2.77018 6.394L3.12839 6.294L3.4468 6.244L3.6856 6.234H3.84481L3.90451 6.244H12.0239V5.414H6.21297L6.20302 2.66401L6.18312 2.294L6.23287 1.954L6.34232 1.644L6.51147 1.364L6.76023 1.104L7.06869 0.874005L7.4468 0.674005L7.88461 0.494005L8.39207 0.344005L8.96919 0.224005L9.606 0.124005L10.3125 0.0640049L11.0786 0.0240049L11.9145 0.00400494L13.1781 0.0540049L14.2428 0.184005ZM7.97416 2.16401L7.7453 2.494L7.6657 2.90401L7.7453 3.314L7.97416 3.65401L8.30252 3.874L8.71048 3.964L9.11844 3.874L9.4468 3.65401L9.67565 3.314L9.75526 2.90401L9.67565 2.494L9.4468 2.16401L9.11844 1.944L8.71048 1.854L8.30252 1.944L7.97416 2.16401ZM20.999 6.11401L21.2776 6.17401L21.5961 6.294L21.9443 6.474L22.3025 6.744L22.6607 7.09401L23.009 7.564L23.3274 8.154L23.606 8.88401L23.815 9.76401L23.9543 10.804L24.004 12.034L23.9443 13.264L23.7851 14.304L23.5463 15.164L23.2279 15.874L22.8697 16.444L22.4717 16.894L22.0538 17.224L21.6359 17.464L21.2378 17.624L20.8796 17.714L20.5612 17.764L20.3224 17.784L20.1632 17.774H11.9841V18.594H17.7951L17.805 21.354L17.8249 21.714L17.7752 22.054L17.6657 22.364L17.4965 22.654L17.2478 22.904L16.9393 23.144L16.5612 23.344L16.1234 23.514L15.616 23.664L15.0388 23.794L14.402 23.884L13.6956 23.954L12.9294 23.994L12.0936 24.004L10.8299 23.964L9.76521 23.824L8.86968 23.624L8.14331 23.374L7.55625 23.074L7.10849 22.744L6.77018 22.404L6.52142 22.064L6.36222 21.734L6.26272 21.434L6.22292 21.184L6.20302 20.984L6.21297 20.854V15.514L6.26272 14.874L6.39207 14.334L6.60103 13.874L6.85973 13.494L7.15824 13.174L7.4866 12.934L7.83486 12.734L8.18312 12.594L8.51147 12.494L8.80998 12.434L9.06869 12.394L9.27764 12.374L9.407 12.364H15.2179L15.9045 12.314L16.4916 12.174L16.9891 11.964L17.397 11.684L17.7254 11.364L17.9941 11.014L18.1931 10.654L18.3423 10.294L18.4418 9.944L18.5115 9.624L18.5513 9.34401L18.5712 9.13401V6.07401H20.6508L20.7901 6.084L20.999 6.11401ZM14.5612 20.364L14.3324 20.694L14.2528 21.104L14.3324 21.514L14.5612 21.844L14.8896 22.074L15.2975 22.154L15.7055 22.074L16.0339 21.844L16.2627 21.514L16.3423 21.104L16.2627 20.694L16.0339 20.364L15.7055 20.134L15.2975 20.054L14.8896 20.134L14.5612 20.364Z" fill="black" stroke="black" stroke-width="0.008"/>
</svg>

<!DOCTYPE svg PUBLIC "-//W3C//DTD SVG 1.1//EN" "http://www.w3.org/Graphics/SVG/1.1/DTD/svg11.dtd">
<!-- Uploaded to: SVG Repo, www.svgrepo.com, Transformed by: SVG Repo Mixer Tools -->
<svg fill="#000000" width="800px" height="800px" viewBox="0 0 24.00 24.00" xmlns="http://www.w3.org/2000/svg" role="img" stroke="#000000" stroke-width="0.00024000000000000003">
<g id="SVGRepo_bgCarrier" stroke-width="0"/>
<g id="SVGRepo_tracerCarrier" stroke-linecap="round" stroke-linejoin="round"/>
<g id="SVGRepo_iconCarrier">
<title>Python icon</title>
<path d="M14.31.18l.9.2.73.26.59.3.45.32.34.34.25.34.16.33.1.3.04.26.02.2-.01.13V8.5l-.05.63-.13.55-.21.46-.26.38-.3.31-.33.25-.35.19-.35.14-.33.1-.3.07-.26.04-.21.02H8.83l-.69.05-.59.14-.5.22-.41.27-.33.32-.27.35-.2.36-.15.37-.1.35-.07.32-.04.27-.02.21v3.06H3.23l-.21-.03-.28-.07-.32-.12-.35-.18-.36-.26-.36-.36-.35-.46-.32-.59-.28-.73-.21-.88-.14-1.05L0 11.97l.06-1.22.16-1.04.24-.87.32-.71.36-.57.4-.44.42-.33.42-.24.4-.16.36-.1.32-.05.24-.01h.16l.06.01h8.16v-.83H6.24l-.01-2.75-.02-.37.05-.34.11-.31.17-.28.25-.26.31-.23.38-.2.44-.18.51-.15.58-.12.64-.1.71-.06.77-.04.84-.02 1.27.05 1.07.13zm-6.3 1.98l-.23.33-.08.41.08.41.23.34.33.22.41.09.41-.09.33-.22.23-.34.08-.41-.08-.41-.23-.33-.33-.22-.41-.09-.41.09-.33.22zM21.1 6.11l.28.06.32.12.35.18.36.27.36.35.35.47.32.59.28.73.21.88.14 1.04.05 1.23-.06 1.23-.16 1.04-.24.86-.32.71-.36.57-.4.45-.42.33-.42.24-.4.16-.36.09-.32.05-.24.02-.16-.01h-8.22v.82h5.84l.01 2.76.02.36-.05.34-.11.31-.17.29-.25.25-.31.24-.38.2-.44.17-.51.15-.58.13-.64.09-.71.07-.77.04-.84.01-1.27-.04-1.07-.14-.9-.2-.73-.25-.59-.3-.45-.33-.34-.34-.25-.34-.16-.33-.1-.3-.04-.25-.02-.2.01-.13v-5.34l.05-.64.13-.54.21-.46.26-.38.3-.32.33-.24.35-.2.35-.14.33-.1.3-.06.26-.04.21-.02.13-.01h5.84l.69-.05.59-.14.5-.21.41-.28.33-.32.27-.35.2-.36.15-.36.1-.35.07-.32.04-.28.02-.21V6.07h2.09l.14.01.21.03zm-6.47 14.25l-.23.33-.08.41.08.41.23.33.33.23.41.08.41-.08.33-.23.23-.33.08-.41-.08-.41-.23-.33-.33-.23-.41-.08-.41.08-.33.23z"/>
</g>
</svg>
